src/assets/bg/stamp-left-bottom.svg

<?xml version="1.0" encoding="UTF-8"?>
<svg width="330px" height="441px" viewBox="0 0 330 441" version="1.1" xmlns="http://www.w3.org/2000/svg" xmlns:xlink="http://www.w3.org/1999/xlink">
    <!-- Generator: Sketch 58 (84663) - https://sketch.com -->
    <title>Group 5</title>
    <desc>Created with Sketch.</desc>
    <defs>
        <linearGradient x1="21.1726786%" y1="11.5565426%" x2="49.351127%" y2="90.1688327%" id="linearGradient-1">
            <stop stop-color="#14C39A" offset="0%"></stop>
            <stop stop-color="#82A5AF" offset="24.1630512%"></stop>
            <stop stop-color="#F785C4" offset="49.8235295%"></stop>
            <stop stop-color="#34D2FB" offset="76.8449113%"></stop>
            <stop stop-color="#14C39A" offset="100%"></stop>
        </linearGradient>
        <linearGradient x1="21.1726786%" y1="12.032271%" x2="49.351127%" y2="89.6717532%" id="linearGradient-2">
            <stop stop-color="#14C39A" offset="0%"></stop>
            <stop stop-color="#F785C4" offset="49.8235295%"></stop>
            <stop stop-color="#34D2FB" offset="76.8449113%"></stop>
            <stop stop-color="#14C39A" offset="100%"></stop>
        </linearGradient>
        <linearGradient x1="21.1726786%" y1="11.5772678%" x2="49.351127%" y2="90.1471774%" id="linearGradient-3">
            <stop stop-color="#14C39A" offset="0%"></stop>
            <stop stop-color="#3BD2FA" offset="25.3773131%"></stop>
            <stop stop-color="#F785C4" offset="49.8235295%"></stop>
            <stop stop-color="#34D2FB" offset="76.8449113%"></stop>
            <stop stop-color="#14C39A" offset="100%"></stop>
        </linearGradient>
    </defs>
    <g id="Page-1" stroke="none" stroke-width="1" fill="none" fill-rule="evenodd" opacity="0.699999988">
        <g id="Proofi---landingpage" transform="translate(0.000000, -294.000000)">
            <g id="hero">
                <g id="Group-5" transform="translate(-116.000000, 718.000000) rotate(-322.000000) translate(116.000000, -718.000000) translate(-561.000000, 290.000000)">
                    <path d="M849.795558,345.516494 C837.975859,330.972971 826.840306,317.232554 822.764548,304.660292 C818.383108,291.095098 819.300154,272.769674 820.289981,253.392912 C821.731052,224.086837 823.419581,190.882046 804.991332,165.401676 C786.373851,139.71688 754.117137,131.043333 725.659612,123.391921 C707.129469,118.412662 689.618266,113.652433 678.409931,105.519157 C667.41994,97.4734935 657.667234,82.360495 647.346832,66.3567787 C631.247588,41.4166806 613.037683,13.1327404 582.556835,3.18882542 C555.991626,-5.35330418 523.909588,4.78043589 495.408394,15.761088 C477.023813,22.8284225 459.687285,29.4576992 444.970887,29.4576992 C430.269046,29.4576992 412.932518,22.8284225 394.547938,15.761088 C366.003075,4.82424168 333.921036,-5.35330418 307.399496,3.18882542 C276.918648,13.1327404 258.650518,41.3728748 242.56583,66.3567787 C232.274541,82.3166892 222.521834,97.4296877 211.531844,105.475352 C200.27984,113.696239 182.783193,118.412662 164.25305,123.391921 C135.839194,131.043333 103.611593,139.760685 84.9649995,165.460084 C66.5221942,190.83824 68.2107226,224.086837 69.6663505,253.392912 C70.6998463,272.828082 71.573223,291.138904 67.2354519,304.660292 C63.1596938,317.188748 52.0241405,330.972971 40.2044421,345.516494 C21.3686173,368.718963 2.27373675e-13,395.046244 2.27373675e-13,427.812977 C2.27373675e-13,460.535904 21.3103922,486.848584 40.1607733,510.094858 C51.9804717,524.638381 63.116025,538.378798 67.1772268,550.965663 C71.573223,564.516255 70.6561774,582.841678 69.6663505,602.21844 C68.2107226,631.524516 66.5221942,664.729307 84.9649995,690.209676 C103.567924,715.909075 135.839194,724.56802 164.296719,732.219431 C182.826862,737.19869 200.323509,741.958919 211.531844,750.092195 C222.521834,758.137859 232.274541,773.250857 242.609499,789.269176 C258.708744,814.209274 276.918648,842.478612 307.399496,852.437129 C333.862811,860.935453 366.003075,850.743305 394.547938,839.850264 C412.932518,832.826736 430.269046,826.168255 444.970887,826.168255 C459.687285,826.168255 477.023813,832.797532 495.408394,839.850264 C516.107422,847.822919 537.563377,856 559.237676,856 C567.432861,856 575.278695,854.802642 582.49861,852.437129 C612.994014,842.478612 631.247588,814.253079 647.346832,789.269176 C657.623565,773.309265 667.376272,758.196267 678.409931,750.136001 C689.618266,741.915114 707.129469,737.19869 725.703281,732.219431 C754.117137,724.56802 786.330182,715.909075 804.991332,690.209676 C823.419581,664.83152 821.731052,631.568321 820.289981,602.21844 C819.300154,582.797872 818.383108,564.472449 822.764548,550.965663 C826.840306,538.422604 837.975859,524.638381 849.795558,510.094858 C868.631383,486.936196 890,460.623516 890,427.812977 C889.956331,395.09005 868.631383,368.762768 849.795558,345.516494" id="Path" fill="url(#linearGradient-1)" opacity="0.099999994"></path>
                    <path d="M816.439604,351.547481 C805.615948,338.312195 795.418784,325.807774 791.686488,314.366427 C787.674271,302.021467 788.514037,285.344476 789.420452,267.710716 C790.740085,241.040818 792.286322,210.822907 775.411015,187.63458 C758.362423,164.260215 728.823972,156.366882 702.764553,149.40374 C685.795938,144.872382 669.760398,140.54035 659.496586,133.13869 C649.432718,125.81676 640.501869,112.063225 631.051164,97.499095 C616.308598,74.8024403 599.633235,49.062733 571.720998,40.0133057 C547.394431,32.2395686 518.015935,41.4617457 491.916527,51.4546521 C475.081209,57.8862569 459.205624,63.9192084 445.729372,63.9192084 C432.26645,63.9192084 416.390865,57.8862569 399.555547,51.4546521 C373.41615,41.501611 344.037654,32.2395686 319.751076,40.0133057 C291.838839,49.062733 275.110158,74.762575 260.380921,97.499095 C250.956875,112.023359 242.026026,125.776894 231.962158,133.098824 C221.658357,140.580216 205.636147,144.872382 188.667532,149.40374 C162.648102,156.366882 133.13631,164.30008 116.061059,187.687734 C99.1724227,210.783042 100.718659,241.040818 102.051622,267.710716 C102.998025,285.397629 103.797803,302.061332 99.8255744,314.366427 C96.0932791,325.767909 85.8961151,338.312195 75.0724587,351.547481 C57.8239225,372.662811 38.2560314,396.621868 38.2560314,426.441126 C38.2560314,456.220519 57.770604,480.166287 75.0324698,501.321483 C85.8561262,514.556768 96.0532902,527.06119 99.7722559,538.515825 C103.797803,550.847497 102.958037,567.524488 102.051622,585.158247 C100.718659,611.828145 99.1724227,642.046057 116.061059,665.234384 C133.096321,688.622037 162.648102,696.502082 188.707521,703.465224 C205.676135,707.996582 221.698346,712.328613 231.962158,719.730274 C242.026026,727.052204 250.956875,740.805739 260.42091,755.383157 C275.163476,778.079812 291.838839,803.806231 319.751076,812.868946 C343.984336,820.602818 373.41615,811.327487 399.555547,801.414312 C416.390865,795.022572 432.26645,788.963044 445.729372,788.963044 C459.205624,788.963044 475.081209,794.995995 491.916527,801.414312 C510.871255,808.669799 530.519124,816.111326 550.366937,816.111326 C557.871517,816.111326 565.056185,815.021674 571.66768,812.868946 C599.593246,803.806231 616.308598,778.119677 631.051164,755.383157 C640.46188,740.858893 649.39273,727.105358 659.496586,719.770139 C669.760398,712.288748 685.795938,707.996582 702.804541,703.465224 C728.823972,696.502082 758.322434,688.622037 775.411015,665.234384 C792.286322,642.139076 790.740085,611.868011 789.420452,585.158247 C788.514037,567.484623 787.674271,550.807631 791.686488,538.515825 C795.418784,527.101055 805.615948,514.556768 816.439604,501.321483 C833.68814,480.246018 853.256031,456.30025 853.256031,426.441126 C853.216042,396.661733 833.68814,372.702677 816.439604,351.547481" id="Path" fill="url(#linearGradient-2)" opacity="0.149999991"></path>
                    <path d="M775.382316,361.230533 C765.714068,349.337465 756.605436,338.101143 753.271558,327.820087 C749.687638,316.727055 750.437761,301.741312 751.247417,285.895828 C752.426181,261.93058 753.807359,234.777129 738.733466,213.940378 C723.504785,192.936456 697.119518,185.843602 673.841902,179.586607 C658.684661,175.514783 644.360891,171.622072 635.192725,164.971029 C626.203159,158.391631 618.225664,146.03287 609.783808,132.945719 C596.614988,112.550779 581.719695,89.4213889 556.787046,81.2896827 C535.057302,74.3042963 508.814916,82.5912333 485.501579,91.5707385 C470.463406,97.3501009 456.282516,102.771238 444.244833,102.771238 C432.219057,102.771238 418.038166,97.3501009 402.999993,91.5707385 C379.650937,82.6270558 353.40855,74.3042963 331.714526,81.2896827 C306.781878,89.4213889 291.838958,112.514957 278.682045,132.945719 C270.264001,145.997048 262.286506,158.355808 253.296941,164.935206 C244.093055,171.657895 229.781191,175.514783 214.62395,179.586607 C191.382054,185.843602 165.020601,192.972279 149.768107,213.988142 C134.682306,234.741307 136.063485,261.93058 137.254155,285.895828 C138.099532,301.789075 138.813934,316.762877 135.265735,327.820087 C131.931857,338.065321 122.823224,349.337465 113.154976,361.230533 C97.7476951,380.204515 80.2686463,401.733833 80.2686463,428.529059 C80.2686463,455.288462 97.7000682,476.80584 113.119256,495.815644 C122.787504,507.708712 131.896136,518.945034 135.218108,529.238031 C138.813934,540.319122 138.063812,555.304866 137.254155,571.150349 C136.063485,595.115598 134.682306,622.269048 149.768107,643.105799 C164.984881,664.121662 191.382054,671.202575 214.65967,677.459571 C229.816911,681.531394 244.128775,685.424105 253.296941,692.075148 C262.286506,698.654546 270.264001,711.013307 278.717765,724.112399 C291.886585,744.507339 306.781878,767.624789 331.714526,775.768436 C353.360923,782.717999 379.650937,774.383299 402.999993,765.475439 C418.038166,759.731899 432.219057,754.28688 444.244833,754.28688 C456.282516,754.28688 470.463406,759.708017 485.501579,765.475439 C502.43292,771.995133 519.983409,778.681998 537.712498,778.681998 C544.415975,778.681998 550.833692,777.70285 556.739419,775.768436 C581.683975,767.624789 596.614988,744.543161 609.783808,724.112399 C618.189944,711.06107 626.167439,698.70231 635.192725,692.110971 C644.360891,685.388283 658.684661,681.531394 673.877622,677.459571 C697.119518,671.202575 723.469065,664.121662 738.733466,643.105799 C753.807359,622.352634 752.426181,595.15142 751.247417,571.150349 C750.437761,555.269043 749.687638,540.2833 753.271558,529.238031 C756.605436,518.980857 765.714068,507.708712 775.382316,495.815644 C790.789598,476.877485 808.268646,455.360107 808.268646,428.529059 C808.232926,401.769656 790.789598,380.240337 775.382316,361.230533" id="Path" fill="url(#linearGradient-3)" opacity="0.200000003"></path>
                </g>
            </g>
        </g>
    </g>
</svg>

<svg width="330" height="441" xmlns="http://www.w3.org/2000/svg"><defs><linearGradient x1="21.173%" y1="11.557%" x2="49.351%" y2="90.169%" id="a"><stop stop-color="#14C39A" offset="0%"/><stop stop-color="#82A5AF" offset="24.163%"/><stop stop-color="#F785C4" offset="49.824%"/><stop stop-color="#34D2FB" offset="76.845%"/><stop stop-color="#14C39A" offset="100%"/></linearGradient><linearGradient x1="21.173%" y1="12.032%" x2="49.351%" y2="89.672%" id="b"><stop stop-color="#14C39A" offset="0%"/><stop stop-color="#F785C4" offset="49.824%"/><stop stop-color="#34D2FB" offset="76.845%"/><stop stop-color="#14C39A" offset="100%"/></linearGradient><linearGradient x1="21.173%" y1="11.577%" x2="49.351%" y2="90.147%" id="c"><stop stop-color="#14C39A" offset="0%"/><stop stop-color="#3BD2FA" offset="25.377%"/><stop stop-color="#F785C4" offset="49.824%"/><stop stop-color="#34D2FB" offset="76.845%"/><stop stop-color="#14C39A" offset="100%"/></linearGradient></defs><g transform="rotate(38 170.308 -388.631)" fill="none" fill-rule="evenodd" opacity=".7"><path d="M849.796 345.516c-11.82-14.543-22.956-28.283-27.031-40.856-4.382-13.565-3.465-31.89-2.475-51.267 1.441-29.306 3.13-62.511-15.299-87.991-18.617-25.685-50.874-34.359-79.331-42.01-18.53-4.98-36.042-9.74-47.25-17.873-10.99-8.046-20.743-23.159-31.063-39.162-16.1-24.94-34.31-53.224-64.79-63.168-26.565-8.542-58.647 1.591-87.149 12.572-18.384 7.067-35.72 13.697-50.437 13.697-14.702 0-32.038-6.63-50.423-13.697C366.003 4.824 333.92-5.353 307.399 3.19c-30.48 9.944-48.748 38.184-64.833 63.168-10.291 15.96-20.044 31.073-31.034 39.118-11.252 8.221-28.749 12.938-47.279 17.917-28.414 7.651-60.641 16.369-79.288 42.068-18.443 25.378-16.754 58.627-15.299 87.933 1.034 19.435 1.907 37.746-2.43 51.267-4.076 12.529-15.212 26.313-27.032 40.856C21.37 368.72 0 395.046 0 427.813c0 32.723 21.31 59.036 40.16 82.282 11.82 14.543 22.956 28.284 27.017 40.87 4.396 13.551 3.48 31.877 2.49 51.253-1.456 29.307-3.145 62.511 15.298 87.992 18.603 25.7 50.874 34.358 79.332 42.01 18.53 4.979 36.027 9.739 47.235 17.872 10.99 8.046 20.743 23.159 31.077 39.177 16.1 24.94 34.31 53.21 64.79 63.168 26.464 8.498 58.604-1.694 87.149-12.587 18.385-7.023 35.721-13.682 50.423-13.682 14.716 0 32.053 6.63 50.437 13.682 20.7 7.973 42.155 16.15 63.83 16.15 8.195 0 16.04-1.197 23.26-3.563 30.496-9.958 48.75-38.184 64.849-63.168 10.277-15.96 20.03-31.073 31.063-39.133 11.208-8.22 28.72-12.937 47.293-17.917 28.414-7.651 60.627-16.31 79.288-42.01 18.429-25.377 16.74-58.64 15.299-87.99-.99-19.421-1.907-37.747 2.475-51.253 4.075-12.543 15.21-26.328 27.03-40.871C868.632 486.936 890 460.624 890 427.813c-.044-32.723-21.369-59.05-40.204-82.297" fill="url(#a)" opacity=".1"/><path d="M816.44 351.547c-10.824-13.235-21.021-25.74-24.754-37.18-4.012-12.346-3.172-29.023-2.266-46.656 1.32-26.67 2.866-56.888-14.009-80.076-17.049-23.375-46.587-31.268-72.646-38.231-16.97-4.532-33.005-8.864-43.268-16.265-10.064-7.322-18.995-21.076-28.446-35.64-14.742-22.697-31.418-48.436-59.33-57.486-24.327-7.773-53.705 1.449-79.804 11.442-16.836 6.431-32.711 12.464-46.188 12.464-13.463 0-29.338-6.033-46.173-12.464-26.14-9.953-55.518-19.215-79.805-11.442-27.912 9.05-44.64 34.75-59.37 57.486-9.424 14.524-18.355 28.278-28.419 35.6-10.304 7.481-26.326 11.773-43.294 16.305-26.02 6.963-55.532 14.896-72.607 38.284-16.889 23.095-15.342 53.353-14.01 80.023.947 17.687 1.747 34.35-2.225 46.655-3.733 11.402-13.93 23.946-24.754 37.181-17.248 21.116-36.816 45.075-36.816 74.894 0 29.78 19.515 53.725 36.776 74.88 10.824 13.236 21.021 25.74 24.74 37.195 4.026 12.331 3.186 29.008 2.28 46.642-1.333 26.67-2.88 56.888 14.01 80.076 17.034 23.388 46.586 31.268 72.646 38.231 16.968 4.532 32.99 8.864 43.254 16.265 10.064 7.322 18.995 21.076 28.459 35.653 14.742 22.697 31.418 48.423 59.33 57.486 24.233 7.734 53.665-1.542 79.805-11.455 16.835-6.391 32.71-12.451 46.173-12.451 13.477 0 29.352 6.033 46.188 12.451 18.954 7.256 38.602 14.697 58.45 14.697 7.505 0 14.69-1.09 21.3-3.242 27.926-9.063 44.642-34.75 59.384-57.486 9.41-14.524 18.342-28.278 28.446-35.613 10.263-7.481 26.299-11.773 43.308-16.305 26.019-6.963 55.517-14.843 72.606-38.23 16.875-23.096 15.33-53.367 14.01-80.077-.907-17.673-1.747-34.35 2.265-46.642 3.733-11.415 13.93-23.96 24.754-37.195 17.248-21.075 36.816-45.02 36.816-74.88-.04-29.78-19.568-53.738-36.816-74.894" fill="url(#b)" opacity=".15"/><path d="M775.382 361.23c-9.668-11.893-18.777-23.129-22.11-33.41-3.584-11.093-2.834-26.079-2.025-41.924 1.18-23.965 2.56-51.119-12.514-71.956-15.228-21.004-41.613-28.096-64.891-34.353-15.157-4.072-29.481-7.965-38.65-14.616-8.989-6.58-16.966-18.938-25.408-32.025-13.169-20.395-28.064-43.525-52.997-51.656-21.73-6.986-47.972 1.301-71.285 10.28-15.039 5.78-29.22 11.201-41.257 11.201-12.026 0-26.207-5.42-41.245-11.2-23.35-8.944-49.591-17.267-71.285-10.281-24.933 8.131-39.876 31.225-53.033 51.656-8.418 13.051-16.395 25.41-25.385 31.99-9.204 6.722-23.516 10.579-38.673 14.65-23.242 6.258-49.603 13.386-64.856 34.402-15.086 20.753-13.705 47.943-12.514 71.908.846 15.893 1.56 30.867-1.988 41.924-3.334 10.245-12.443 21.517-22.111 33.41-15.407 18.975-32.886 40.504-32.886 67.3 0 26.758 17.431 48.276 32.85 67.286 9.669 11.893 18.777 23.129 22.1 33.422 3.595 11.081 2.845 26.067 2.035 41.912-1.19 23.966-2.572 51.119 12.514 71.956 15.217 21.016 41.614 28.097 64.892 34.354 15.157 4.071 29.469 7.964 38.637 14.615 8.99 6.58 16.967 18.938 25.42 32.037 13.17 20.395 28.065 43.513 52.998 51.656 21.646 6.95 47.936-1.385 71.285-10.293 15.038-5.743 29.22-11.188 41.245-11.188 12.038 0 26.218 5.421 41.257 11.188 16.93 6.52 34.481 13.207 52.21 13.207 6.704 0 13.122-.98 19.027-2.914 24.945-8.143 39.876-31.225 53.045-51.656 8.406-13.05 16.383-25.41 25.409-32.001 9.168-6.723 23.492-10.58 38.685-14.651 23.242-6.257 49.591-13.338 64.855-34.354 15.074-20.753 13.693-47.955 12.514-71.956-.81-15.881-1.56-30.867 2.025-41.912 3.333-10.257 12.442-21.53 22.11-33.422 15.408-18.939 32.887-40.456 32.887-67.287-.036-26.76-17.48-48.289-32.887-67.298" fill="url(#c)" opacity=".2"/></g></svg>
